X: 33748
T: Rattlin' Bog, The
R: polka
M: 2/4
K: Dmajor
"D"f2 f>e|"G"dB B>B|"D"Ad de|"A7"fe e2|
"D"f2 f>e|"G"dB B>B|"D"Aa af|"A7"fe "D"d2:|
|:fd ed|fd e>d|f2 af/f/|"A7"fe ee/e/|
"D"fd/d/ ed/d/|fa af|"A7"fe "D"d2:|

